lib/radiotmp/nrk-sleep-expressive.svg

<svg width="24" height="24" viewBox="0 0 24 24" fill="none" xmlns="http://www.w3.org/2000/svg">
<path d="M4.66727 18.9627C4.14679 18.9627 3.72485 18.5408 3.72485 18.0203C3.72485 17.8143 3.79237 17.6139 3.91707 17.4499L9.52985 10.0677H4.76735C4.28272 10.0677 3.88985 9.67487 3.88985 9.19024C3.88985 8.70561 4.28272 8.31274 4.76735 8.31274H11.5284C12.0484 8.31274 12.4699 8.73424 12.4699 9.25419C12.4699 9.4608 12.4019 9.66168 12.2764 9.82585L6.63485 17.2077H11.5318C12.0961 17.2077 12.5137 17.7327 12.3868 18.2826C12.2949 18.6807 11.9404 18.9627 11.5318 18.9627H4.66727Z" fill="black"/>
<path d="M14.369 12.6814C13.9022 12.6814 13.5025 12.3468 13.4204 11.8872C13.3698 11.6037 13.4486 11.3123 13.6354 11.0931L17.4953 6.56005H14.3011C13.8398 6.56005 13.4845 6.15313 13.5466 5.69602C13.5979 5.31858 13.9202 5.03711 14.3011 5.03711H18.9303C19.4485 5.03711 19.889 5.41566 19.967 5.928C20.0124 6.22636 19.9271 6.52982 19.7328 6.76077L16.0463 11.1437H19.3873C19.8556 11.1437 20.2151 11.5588 20.1483 12.0223C20.0937 12.4006 19.7695 12.6814 19.3873 12.6814H14.369Z" fill="black"/>
</svg>

<svg xmlns="http://www.w3.org/2000/svg" viewBox="0 0 24 24"><path fill="#000" d="M4.667 18.963a.942.942 0 0 1-.75-1.513l5.613-7.382H4.767a.877.877 0 1 1 0-1.755h6.761a.941.941 0 0 1 .748 1.513l-5.641 7.382h4.897a.878.878 0 0 1 0 1.755H4.667ZM14.369 12.681a.964.964 0 0 1-.734-1.588l3.86-4.533h-3.194a.761.761 0 0 1 0-1.523h4.63a1.049 1.049 0 0 1 .802 1.724l-3.687 4.383h3.341a.769.769 0 0 1 0 1.537H14.37Z"/></svg>
